svg/fluentui-system-icons/ic_fluent_crop_16_filled.svg

<svg width="16" height="16" viewBox="0 0 16 16" fill="none" xmlns="http://www.w3.org/2000/svg">
<path d="M5 1.75C5 1.33579 4.66421 1 4.25 1C3.83579 1 3.5 1.33579 3.5 1.75V3.5H1.75C1.33579 3.5 1 3.83579 1 4.25C1 4.66421 1.33579 5 1.75 5H3.5V9.5C3.5 11.1569 4.84315 12.5 6.5 12.5H11V14.25C11 14.6642 11.3358 15 11.75 15C12.1642 15 12.5 14.6642 12.5 14.25V12.5H14.25C14.6642 12.5 15 12.1642 15 11.75C15 11.3358 14.6642 11 14.25 11H6.5C5.67157 11 5 10.3284 5 9.5V1.75ZM11 6.5V10H12.5V6.5C12.5 4.84315 11.1569 3.5 9.5 3.5H6V5H9.5C10.3284 5 11 5.67157 11 6.5Z" fill="#212121"/>
</svg>

<svg xmlns="http://www.w3.org/2000/svg" width="16" height="16"><path d="M5 1.75a.75.75 0 0 0-1.5 0V3.5H1.75a.75.75 0 0 0 0 1.5H3.5v4.5a3 3 0 0 0 3 3H11v1.75a.75.75 0 0 0 1.5 0V12.5h1.75a.75.75 0 0 0 0-1.5H6.5A1.5 1.5 0 0 1 5 9.5V1.75Zm6 4.75V10h1.5V6.5a3 3 0 0 0-3-3H6V5h3.5A1.5 1.5 0 0 1 11 6.5Z"/></svg>
